X: 118202
Q: "Reel."
M: C
L: 1/8
K: A
uE |!segno!\
efec eaec | BABc A2A2 ||
E2 (3(GFE) B>E (3(GFE) | BEdE cEBE |\
e^dec agaf | e^dec agaf |\
ecag fedc | BAGF EFGE |]


